X:106
T: Ich habe den Frhling gesehen (1-31), S. 82f
N: K1080
O: Luxemburg
S: KINTZELE, Guillaume: An der Ucht, Bd. 1, Luxemburg 1926]
N: in der Quelle mit einer 2. Stimme versehen
R: Liebesklage]
M: 4/4
L: 1/16
K: F
C4 | F4A2c2c4B2E2 | G4F4z4
F2F2 | E2G2B2d2d4c2G2 | A8z4
F2G2 | A3AA2A2A2F2d3c | c2B2B4z4
c2c2 | e4d2d2c4B2B2 | A8z4
F2G2 | A3AA2A2A2F2d3c | c2B2B4z4
c2c2 | e4d2d2c4B2E2 | F8z4

